outputs/icons/action/filter_alt_round.svg

<svg width="1200" height="1200" viewBox="0 0 1200 1200" fill="none" xmlns="http://www.w3.org/2000/svg"><g clip-path="url(#clip0_755_1891)"><path d="M212.509 280.5C328.509 429.5 500.01 650 500.01 650V900C500.01 955 545.01 1000 600.01 1000C655.01 1000 700.01 955 700.01 900V650C700.01 650 871.51 429.5 987.51 280.5C1013.01 247.5 989.51 200 947.51 200H252.009C210.509 200 187.009 247.5 212.509 280.5Z" fill="#1D1E23"/></g><defs><clipPath id="clip0_755_1891"><path width="24" fill="white" d="M0 0H1200V1200H0V0z"/></clipPath></defs></svg>

<svg xmlns="http://www.w3.org/2000/svg" width="1200" height="1200" fill="none"><g clip-path="url(#a)"><path fill="#000" d="M212.509 280.5c116 149 287.501 369.5 287.501 369.5v250c0 55 45 100 100 100s100-45 100-100V650s171.5-220.5 287.5-369.5c25.5-33 2-80.5-40-80.5H252.009c-41.5 0-65 47.5-39.5 80.5"/></g><defs><clipPath id="a"><path fill="#fff" d="M0 0h1200v1200H0z"/></clipPath></defs></svg>
